X:1
T:Title
%%score { 1 | 2 }
L:1/8
Q:1/4=100
M:6/8
K:G
V:1 treble nm="Grand Piano"
V:2 bass 
V:1
 [DB]2 [DB] [DB]2 [DA] | [CA] [B,G]2- [B,G] z [G,DG] | [G,EG]2 [G,EG] [G,CE]2 [G,CE] | %3
w: Robert~Lowry * * *|||
 [G,B,G]3- [G,B,G]2 [B,DG] | [FA]2 [FA] [Ac]2 [GB] | [GB] [FA]2 [DGB]3 | %6
w: |||
 [EGc]2 [CEA] [B,DG]2 [A,DF] |[M:5/8] [B,DG]-[B,DG]- [B,DG]3 |[M:1/8] [DGB] | %9
w: |||
[M:3/4] [DBd]2 B d2 e | d B3 z d | e2 d d2 B | [FA]4- [FA][GB] | [Dd]2 [DB] [DA]2 [DG] | %14
w: |||||
 [CE] [EG]2 [DB]3 | [DA]2 [A,DF] [G,^CE]2 [A,CF] | [F,D]6 | [DB]2 [DB] [DB]2 [DA] | %18
w: ||||
 [CA] [B,G]3 z [G,DG] | [G,EG]2 [G,EG] [G,CE]2 [G,CE] | [G,B,G]4- [G,B,G][B,DG] | %21
w: |||
 [FA]2 [FA] [Ac]2 [GB] | [GB] [FA]2 [DGB]3 | [EGc]2 [CEA] [B,DG]2 [A,DF] | %24
w: |||
[M:13/8] [B,DG]-[B,DG]- [B,DG]3 z z z z z z z2 |] %25
w: |
V:2
 [G,,G,]2 [G,,G,] [D,F,]2 [D,F,] | [G,,G,] [G,,G,]2- [G,,G,] z B,, | C,2 C, C,2 C, | %3
 G,,3- G,,2 G,, | [D,D]2 [D,D] [D,D]2 [D,D] | [D,D] [D,D]2 G,3 | C,2 C, D,2 D, | %7
[M:5/8] G,,-G,,- G,,3 |[M:1/8] G, |[M:3/4] G,2[K:treble] [G,DG] [G,B,G]2 [G,CG] | %10
 [G,B,G] [G,DG]3 z [G,B,G] | [G,CG]2 [G,B,G] [G,B,G]2 [G,DG] | [D,D]4- [D,D][G,D] | %13
 [G,B,]2 [G,,G,] [A,,F,]2 [B,,G,] | [C,G,] [C,G,]2 [G,,G,]3 | [A,,F,]2 A,, A,,2 A,, | D,6 | %17
 [G,,G,]2 [G,,G,] [D,F,]2 [D,F,] | [G,,G,] [G,,G,]3 z B,, | C,2 C, C,2 C, | G,,4- G,,G,, | %21
 [D,D]2 [D,D] [D,D]2 [D,D] | [D,D] [D,D]2 G,3 | C,2 C, D,2 D, | %24
[M:13/8] G,,-G,,- G,,3 z z z z z z z2 |] %25

